images/kunuz.svg

<svg width="136" height="68" viewBox="0 0 136 68" fill="none" xmlns="http://www.w3.org/2000/svg">
<mask id="mask0_5_914" style="mask-type:luminance" maskUnits="userSpaceOnUse" x="23" y="17" width="90" height="35">
<path d="M23 17H113V52H23V17Z" fill="white"/>
</mask>
<g mask="url(#mask0_5_914)">
<path d="M95.365 52C105.104 52 113 44.165 113 34.5C113 24.835 105.104 17 95.365 17C85.625 17 77.73 24.835 77.73 34.5C77.73 44.165 85.625 52 95.365 52ZM72.257 42.345C72.74 42.345 73.205 42.155 73.547 41.815C73.7159 41.6474 73.85 41.448 73.9416 41.2283C74.0331 41.0086 74.0802 40.773 74.0802 40.535C74.0802 40.297 74.0331 40.0614 73.9416 39.8417C73.85 39.622 73.7159 39.4226 73.547 39.255C73.2039 38.9147 72.7402 38.7238 72.257 38.7238C71.7738 38.7238 71.3101 38.9147 70.967 39.255C70.798 39.4226 70.6639 39.622 70.5724 39.8417C70.4809 40.0614 70.4338 40.297 70.4338 40.535C70.4338 40.773 70.4809 41.0086 70.5724 41.2283C70.6639 41.448 70.798 41.6474 70.967 41.815C71.309 42.155 71.773 42.345 72.257 42.345ZM64.136 27.045H68.306V42.463H64.46L58.109 34.008L58.159 42.342H53.979V26.945H57.836L64.136 35.892V27.045ZM45.327 42.723C41.31 42.723 38.543 40.108 38.543 36.333V27.045H42.723V36.342C42.723 37.895 43.803 38.967 45.327 38.967C46.862 38.967 47.942 37.895 47.942 36.351V27.045H52.122V36.332C52.122 40.11 49.355 42.723 45.327 42.723ZM32.092 34.54L38.139 42.344H32.888L28.388 36.111H28.228V42.342H24.046V27.045H28.226V33.417H28.336L32.586 27.045H37.412L32.092 34.54Z" fill="#0C2F75"/>
<path d="M109.605 42.339V38.642H103.658L110.059 27.042H97.986V30.728H103.204L96.774 42.338L109.605 42.339ZM95.845 36.329V27.04H91.665V36.347C91.665 37.89 90.585 38.962 89.05 38.962C87.526 38.962 86.446 37.89 86.446 36.337V27.04H82.266V36.327C82.266 40.105 85.032 42.719 89.05 42.719C93.078 42.719 95.845 40.104 95.845 36.327V36.329Z" fill="#021923"/>
</g>
</svg>

<svg xmlns="http://www.w3.org/2000/svg" width="136" height="68" fill="none"><mask id="a" width="90" height="35" x="23" y="17" maskUnits="userSpaceOnUse" style="mask-type:luminance"><path fill="#fff" d="M23 17h90v35H23V17Z"/></mask><g mask="url(#a)"><path fill="#0C2F75" d="M95.365 52C105.104 52 113 44.165 113 34.5S105.104 17 95.365 17c-9.74 0-17.635 7.835-17.635 17.5S85.625 52 95.365 52Zm-23.108-9.655c.483 0 .948-.19 1.29-.53a1.805 1.805 0 0 0 0-2.56 1.832 1.832 0 0 0-2.975.587 1.803 1.803 0 0 0 .395 1.973c.342.34.806.53 1.29.53Zm-8.121-15.3h4.17v15.418H64.46l-6.351-8.455.05 8.334h-4.18V26.945h3.857l6.3 8.947v-8.847ZM45.327 42.723c-4.017 0-6.784-2.615-6.784-6.39v-9.288h4.18v9.297c0 1.553 1.08 2.625 2.604 2.625 1.535 0 2.615-1.072 2.615-2.616v-9.306h4.18v9.287c0 3.778-2.767 6.391-6.795 6.391ZM32.092 34.54l6.047 7.804h-5.251l-4.5-6.233h-.16v6.231h-4.182V27.045h4.18v6.372h.11l4.25-6.372h4.826l-5.32 7.495Z"/><path fill="#021923" d="M109.605 42.339v-3.697h-5.947l6.401-11.6H97.986v3.686h5.218l-6.43 11.61 12.831.001Zm-13.76-6.01V27.04h-4.18v9.307c0 1.543-1.08 2.615-2.615 2.615-1.524 0-2.604-1.072-2.604-2.625V27.04h-4.18v9.287c0 3.778 2.766 6.392 6.784 6.392 4.028 0 6.795-2.615 6.795-6.392v.002Z"/></g></svg>
